svg/blobs-icons/no-decorations/noodles.svg

<svg xmlns="http://www.w3.org/2000/svg" preserveAspectRatio="xMidYMid" width="176" height="218"><defs><style>.cls-3{fill:#142a3b}.cls-5{fill:#0cb04a}.cls-9{fill:#e6191e}.cls-14{fill:#020403;opacity:.35}</style></defs><g id="group-147svg"><path d="m126.708 1.616 6.024-1.63 4.785 4.006-6.906 5.624-3.903-8z" id="path-1" class="cls-3" fill-rule="evenodd"/><path d="m131.319 6.41-26.37 119.801L137.517 3.992l-6.198 2.418z" id="path-2" class="cls-3" fill-rule="evenodd"/><path d="m131.319 6.41-26.37 119.801L126.708 1.616l4.611 4.794z" id="path-3" class="cls-5" fill-rule="evenodd"/><path d="m165.769 14.211 6.226.407 3.236 5.336-8.349 3.09-1.113-8.833z" id="path-4" class="cls-3" fill-rule="evenodd"/><path d="m168.587 20.234-63.638 104.875 70.282-105.155-6.644.28z" id="path-5" class="cls-3" fill-rule="evenodd"/><path d="m168.587 20.234-63.638 104.875 60.82-110.898 2.818 6.023z" id="path-6" class="cls-5" fill-rule="evenodd"/><path d="M110.719 190.117h-46.21l-14.06 26.749h74.328l-14.058-26.749z" id="path-7" class="cls-9" fill-rule="evenodd"/><path d="m63.558 188.39-6.348 12.075c10.465 5.516 22.1 8.614 34.373 8.614 9.251.0 18.133-1.771 26.434-4.994l-8.248-15.695H63.558z" id="path-8" fill-rule="evenodd" style="fill:#a72425"/><path d="M135.342 86.658c-.442.0-.872.025-1.31.036-4.801-2.46-11.269-3.979-18.406-3.979-9.745.0-18.25 2.823-22.938 7.03-4.549-1.928-10.266-3.087-16.494-3.087-.441.0-.872.025-1.309.036-4.802-2.46-11.269-3.979-18.407-3.979-10.543.0-19.637 3.302-24.009 8.09-12.75 1.113-22.497 7.075-22.497 14.285.0 8.001 11.995 14.487 26.791 14.487 9.745.0 18.25-2.824 22.938-7.031 4.55 1.929 10.266 3.086 16.493 3.086.443.0.874-.022 1.311-.034 4.801 2.46 11.269 3.979 18.405 3.979 9.746.0 18.25-2.824 22.938-7.031 4.55 1.929 10.266 3.086 16.494 3.086 14.796.0 26.791-6.485 26.791-14.485.0-8.002-11.995-14.489-26.791-14.489z" id="path-9" fill-rule="evenodd" style="fill:#fbb713"/><path d="M170.009 112.639c0 52.181-36.891 94.48-82.394 94.48-45.505.0-82.395-42.299-82.395-94.48h164.789z" id="path-10" class="cls-9" fill-rule="evenodd"/><path d="M66.143 192.083a3.582 3.582.0 01-1.988-.599c-21.953-14.495-36.849-39.208-40.87-67.804a3.614 3.614.0 013.077-4.083c1.978-.287 3.803 1.099 4.082 3.077 3.731 26.543 17.471 49.424 37.693 62.778a3.613 3.613.0 01-1.994 6.631z" id="path-11" fill-rule="evenodd" style="fill:#fff"/><path d="M19.013 112.639H5.218c0 40.523 22.25 75.071 53.5 88.49l-8.269 15.737h6.222l6.883-15.737c-26.016-13.419-44.541-47.967-44.541-88.49z" id="path-12" class="cls-14" fill-rule="evenodd"/><path d="M170.008 112.639h-13.797c0 .671-.019 1.335-.028 2H21.205l134.665 7.279c-2.581 36.454-20.194 66.832-44.2 79.217l6.881 15.731h6.226l-8.267-15.731c31.248-13.425 53.498-47.973 53.498-88.496z" id="path-13" class="cls-14" fill-rule="evenodd"/><path d="M175.231 110.489a4.15 4.15.0 01-4.151 4.15H4.141a4.15 4.15.0 110-8.3H171.08a4.148 4.148.0 014.151 4.15z" id="path-14" class="cls-9" fill-rule="evenodd"/></g></svg>

<svg xmlns="http://www.w3.org/2000/svg" xmlns:xlink="http://www.w3.org/1999/xlink" preserveAspectRatio="xMidYMid" width="176" height="218" viewBox="0 0 176 218"><defs><style>.cls-3{fill:#142a3b}.cls-5{fill:#0cb04a}.cls-9{fill:#e6191e}.cls-10{fill:#a72425}.cls-11{fill:#fbb713}.cls-13{fill:#fff}.cls-14{fill:#020403;opacity:.35}</style></defs><g id="group-147svg"><path d="M126.708 1.616s6.024-1.63 6.024-1.63 4.785 4.006 4.785 4.006S130.611 9.616 130.611 9.616 126.708 1.616 126.708 1.616z" id="path-1" class="cls-3" fill-rule="evenodd"/><path d="M131.319 6.41s-26.37 119.801-26.37 119.801S137.517 3.992 137.517 3.992 131.319 6.41 131.319 6.41z" id="path-2" class="cls-3" fill-rule="evenodd"/><path d="M131.319 6.41s-26.37 119.801-26.37 119.801S126.708 1.616 126.708 1.616 131.319 6.41 131.319 6.41z" id="path-3" class="cls-5" fill-rule="evenodd"/><path d="M165.769 14.211s6.226.407 6.226.407S175.231 19.954 175.231 19.954 166.882 23.044 166.882 23.044s-1.113-8.833-1.113-8.833z" id="path-4" class="cls-3" fill-rule="evenodd"/><path d="M168.587 20.234s-63.638 104.875-63.638 104.875S175.231 19.954 175.231 19.954 168.587 20.234 168.587 20.234z" id="path-5" class="cls-3" fill-rule="evenodd"/><path d="M168.587 20.234s-63.638 104.875-63.638 104.875 60.82-110.898 60.82-110.898S168.587 20.234 168.587 20.234z" id="path-6" class="cls-5" fill-rule="evenodd"/><path d="M110.719 190.117s-20.245.0-20.245.0-5.723.0-5.723.0-20.242.0-20.242.0-14.06 26.749-14.06 26.749 34.302.0 34.302.0 5.723.0 5.723.0 34.303.0 34.303.0-14.058-26.749-14.058-26.749z" id="path-7" class="cls-9" fill-rule="evenodd"/><path d="M63.558 188.39s-6.348 12.075-6.348 12.075C67.675 205.981 79.31 209.079 91.583 209.079 100.834 209.079 109.716 207.308 118.017 204.085L109.769 188.39s-20.245.0-20.245.0-5.724.0-5.724.0-20.242.0-20.242.0z" id="path-8" class="cls-10" fill-rule="evenodd"/><path d="M135.342 86.658C134.9 86.658 134.47 86.683 134.032 86.694 129.231 84.234 122.763 82.715 115.626 82.715 105.881 82.715 97.376 85.538 92.688 89.745 88.139 87.817 82.422 86.658 76.194 86.658 75.753 86.658 75.322 86.683 74.885 86.694 70.083 84.234 63.616 82.715 56.478 82.715 45.935 82.715 36.841 86.017 32.469 90.805 19.719 91.918 9.972 97.88 9.972 105.09 9.972 113.091 21.967 119.577 36.763 119.577 46.508 119.577 55.013 116.753 59.701 112.546 64.251 114.475 69.967 115.632 76.194 115.632 76.637 115.632 77.068 115.61 77.505 115.598 82.306 118.058 88.774 119.577 95.91 119.577 105.656 119.577 114.16 116.753 118.848 112.546 123.398 114.475 129.114 115.632 135.342 115.632c14.796.0 26.791-6.485 26.791-14.485C162.133 93.145 150.138 86.658 135.342 86.658z" id="path-9" class="cls-11" fill-rule="evenodd"/><path d="M170.009 112.639c0 52.181-36.891 94.48-82.394 94.48-45.505.0-82.395-42.299-82.395-94.48H170.009z" id="path-10" class="cls-9" fill-rule="evenodd"/><path d="M66.143 192.083C65.46 192.083 64.768 191.891 64.155 191.484c-21.953-14.495-36.849-39.208-40.87-67.804C23.006 121.703 24.385 119.874 26.362 119.597 28.34 119.31 30.165 120.696 30.444 122.674c3.731 26.543 17.471 49.424 37.693 62.778C69.803 186.551 70.262 188.795 69.162 190.459 68.467 191.513 67.317 192.083 66.143 192.083z" id="path-11" class="cls-13" fill-rule="evenodd"/><path d="M19.013 112.639s-13.795.0-13.795.0c0 40.523 22.25 75.071 53.5 88.49L50.449 216.866s6.222.0 6.222.0 6.883-15.737 6.883-15.737c-26.016-13.419-44.541-47.967-44.541-88.49z" id="path-12" class="cls-14" fill-rule="evenodd"/><path d="M170.008 112.639s-13.797.0-13.797.0C156.211 113.31 156.192 113.974 156.183 114.639H21.205S155.87 121.918 155.87 121.918C153.289 158.372 135.676 188.75 111.67 201.135l6.881 15.731s6.226.0 6.226.0-8.267-15.731-8.267-15.731c31.248-13.425 53.498-47.973 53.498-88.496z" id="path-13" class="cls-14" fill-rule="evenodd"/><path d="M175.231 110.489C175.231 112.782 173.373 114.639 171.08 114.639H4.141C1.849 114.639-.011 112.782-.011 110.489-.011 108.194 1.849 106.339 4.141 106.339H171.08C173.373 106.339 175.231 108.194 175.231 110.489z" id="path-14" class="cls-9" fill-rule="evenodd"/></g></svg>
